X:1
T:Polka : La Cotula
Z:Ren Quiniou (http://www.irisa.fr/prive/quiniou)
R:polka
C:Trad.
S:
A:Mexique
M:2/4
L:1/16
K:G
Q:1/4=120
B2c2 |: "G"d4 d2B2 | G4 A2B2 | "D"c4 c2A2 | F4 A2B2 |
c4 c2A2 | F2A2 B2c2 | e4 d4 | "G"B4 B2c2 | d4 d2B2 | 
G4 A2B2 | "D"c4 c2A2 | F4 A2B2 | c4 c2A2 |
F2A2 B2A2 | "G"G4 B4 | G4 B2c2 ::
d4 [e4g4] | [e6g6] [e2g2] | "D"[d8f8] | [d4f4] A2B2 |
c4 [d4f4] | [d6f6] [c2e2] | [c4e4] [B4d4] |
"G"[B8d8] | e2d2 B2G2 | e2d2 B2G2 | "D"d2c2 A2F2 |
D8 | d2c2 A2F2 | d2c2 A2F2 | "G"G4 G2B2 | G4 B2c2 :|
